X: 8
T: This Is My Love, Do You Like Her?
R: jig
M: 6/8
L: 1/8
K: Bmin
|:B2B BAF|d3 def|e2e efe|a3 f2b|afd def|edB ABc|dcB cBA|1 dB2 BAF:|2 dBB Bdf||:b2b baf|a3 f2a|b2b baf|a3 f2b|afd def|edB ABc|dcB cBA|1 dBB Bdf:|2 dB2 BAF ||


Tune 6	Setting 12359

